src/assets/img/delivery_tab_2.svg

<svg xmlns="http://www.w3.org/2000/svg" xmlns:xlink="http://www.w3.org/1999/xlink" width="234" height="234" viewBox="0 0 234 234" version="1.1">
    <!-- Generator: Sketch 3.7.2 (28276) - http://www.bohemiancoding.com/sketch -->
    <title>delivery_tab_2</title>
    <desc>Created with Sketch.</desc>
    <defs/>
    <g id="Page-1" stroke="none" stroke-width="1" fill="none" fill-rule="evenodd">
        <g id="delivery_tab_2" fill="#E2E2E2">
            <path d="M199.5194,34.2323 C177.601054,12.3137442 147.873271,1.0100468e-05 116.8759,1.0100468e-05 C85.8785292,1.0100468e-05 56.1507463,12.3137442 34.2324,34.2323 C12.3137707,56.1506073 -1.41661728e-05,85.8784048 -1.41661728e-05,116.8758 C-1.41661728e-05,147.873195 12.3137707,177.600993 34.2324,199.5193 C56.1507203,221.437905 85.8785129,233.751673 116.8759,233.751673 C147.873287,233.751673 177.60108,221.437905 199.5194,199.5193 C221.43798,177.600967 233.751731,147.873179 233.751731,116.8758 C233.751731,85.8784211 221.43798,56.1506333 199.5194,34.2323 L199.5194,34.2323 Z M196.513,196.5134 C152.530637,240.495738 81.2211634,240.495738 37.2388,196.5134 C-6.74342711,152.530991 -6.74342711,81.2216092 37.2388,37.2392 C81.2211634,-6.74313756 152.530637,-6.74313756 196.513,37.2392 C217.634089,58.3602634 229.499795,87.0065879 229.499795,116.8763 C229.499795,146.746012 217.634089,175.392337 196.513,196.5134 L196.513,196.5134 Z" id="Shape"/>
            <path d="M107.6984,116.4079 C100.168086,116.408085 93.6865453,121.727598 92.2176137,129.113251 C90.748682,136.498904 94.7014749,143.893701 101.658632,146.775297 C108.615789,149.656893 116.639655,147.222729 120.823175,140.961435 C125.006694,134.700142 124.184705,126.355568 118.8599,121.0309 C115.902692,118.066221 111.885807,116.402461 107.6984,116.4079 L107.6984,116.4079 Z M117.3056,141.799 C112.722242,146.382257 105.539563,147.089605 100.150207,143.488457 C94.7608515,139.88731 92.665832,132.980638 95.1463802,126.992291 C97.6269283,121.003945 103.992176,117.601763 110.349388,118.866387 C116.7066,120.131011 121.285201,125.710224 121.2851,132.192 C121.289714,135.79624 119.857532,139.253667 117.3056,141.7989 L117.3056,141.799 Z" id="Shape"/>
            <path d="M105.9209,114.2104 C101.02,104.9454 99.8372,100.387 98.7974,89.0104 C91.7456,89.4347 90.2436,89.1433 83.4126,88.6087 C83.7269,101.391 87.3944,109.3716 95.1605,119.0505 C98.1093209,116.285514 101.895689,114.58238 105.9209,114.2104 L105.9209,114.2104 Z" id="Shape"/>
            <path d="M78.8491,87.7934 L72.3286,85.981 C70.0923066,85.2221304 67.6496733,86.3198794 66.7324,88.496 C64.6933,92.5288 65.7373,98.8844 67.1012,103.0034 C71.3391,115.8004 78.5812,121.6764 90.0667,127.3898 C90.5330924,125.746179 91.2294457,124.176724 92.1351,122.728 C82.5443,111.1419 81.627,101.9988 78.8491,87.7934 L78.8491,87.7934 Z" id="Shape"/>
            <path d="M29.8678,102.1076 C28.6915,102.181 28.8815,102.3616 28.7618,102.4393 C37.4477,105.554 48.7212,103.381 58.7573,102.2972 C58.7401,96.3834 34.0705,101.9647 29.8678,102.1076 L29.8678,102.1076 Z" id="Shape"/>
            <path d="M43.4678,111.4034 C47.2256,112.6348 62.4278,113.1975 62.4323,109.9434 C61.4962,107.3653 45.5578,109.9868 43.4678,111.4034 L43.4678,111.4034 Z" id="Shape"/>
            <circle id="Oval" cx="107.6986" cy="132.1921" r="7.1245"/>
            <path d="M163.0866,90.6191 C163.404636,92.6685217 163.919861,94.6824374 164.6251,96.6328 C166.681593,102.992965 170.662398,108.557566 176.0176,112.5579 L186.9351,117.9122 C187.4306,114.8009 184.4777,108.4334 183.2051,106.395 C179.519,100.4893 170.1366,92.2757 163.0866,90.6191 L163.0866,90.6191 Z" id="Shape"/>
            <path d="M158.0792,88.8769 C138.0028,84.8237 145.8392,106.8018 154.681,114.3051 C159.745529,113.600259 164.873442,115.052636 168.816155,118.308595 C172.758868,121.564555 175.154629,126.325355 175.4201,131.4318 C182.5358,130.2565 182.6912,128.0755 186.5979,122.5599 C168.3392,117.222 162.1057,106.5416 158.0792,88.8769 L158.0792,88.8769 Z" id="Shape"/>
            <path d="M149.5809,115.795 C139.7751,106.1249 144.3172,90.0564 136.0851,86.847 C132.8251,85.577 126.6441,85.6179 122.8782,86.1199 C122.1645,98.6992 131.8607,117.3784 139.5301,127.336 C139.7271,127.0704 140.6625,124.405 141.0594,123.6484 C143.044955,120.232776 146.014876,117.495702 149.5809,115.795 L149.5809,115.795 Z" id="Shape"/>
            <path d="M157.28,116.4079 C149.749537,116.407854 143.267722,121.72731 141.798601,129.113077 C140.329481,136.498844 144.28223,143.893864 151.239488,146.775605 C158.196746,149.657347 166.220801,147.223197 170.404426,140.961795 C174.588051,134.700394 173.766038,126.355645 168.4411,121.0309 C165.484021,118.066273 161.467279,116.402512 157.28,116.4079 L157.28,116.4079 Z M166.8872,141.799 C162.303995,146.382362 155.121371,147.089899 149.731952,143.488909 C144.342532,139.887918 142.247356,132.981331 144.727753,126.992959 C147.208151,121.004587 153.573293,117.602284 159.930497,118.866772 C166.287701,120.13126 170.866386,125.710359 170.8664,132.1921 C170.870961,135.796222 169.438948,139.25355 166.8873,141.7989 L166.8872,141.799 Z" id="Shape"/>
            <path d="M118.2419,86.4241 L103.4419,88.5241 C102.2086,96.0806 107.1726,107.9592 111.4177,114.5283 C119.841109,116.322962 125.863219,123.762331 125.8643,132.3748 C125.8643,132.4879 125.862,132.6008 125.86,132.7132 L138.5578,133.3677 C138.2198,132.7064 135.7594,130.0077 134.7978,128.6897 C124.3914,114.425 120.4985,103.4934 118.2419,86.4241 L118.2419,86.4241 Z" id="Shape"/>
            <circle id="Oval" cx="157.2801" cy="132.1921" r="7.1244"/>
        </g>
    </g>
</svg>

<svg xmlns="http://www.w3.org/2000/svg" width="234" height="234"><g fill="#E2E2E2" fill-rule="evenodd"><path d="M199.52 34.232A116.875 116.875 0 1 0 34.231 199.518 116.875 116.875 0 0 0 199.52 34.232Zm-3.007 162.281c-43.982 43.983-115.292 43.983-159.274 0-43.982-43.982-43.982-115.291 0-159.274 43.982-43.982 115.292-43.982 159.274 0a112.624 112.624 0 0 1 0 159.274Z"/><path d="M107.698 116.408a15.784 15.784 0 1 0 11.162 4.623 15.736 15.736 0 0 0-11.162-4.623Zm9.608 25.391a13.586 13.586 0 1 1 3.98-9.607 13.544 13.544 0 0 1-3.98 9.607ZM105.92 114.21c-4.9-9.265-6.083-13.823-7.123-25.2-7.051.425-8.553.133-15.384-.401.314 12.782 3.981 20.763 11.748 30.442a18.177 18.177 0 0 1 10.76-4.84Z"/><path d="m78.85 87.793-6.521-1.812a4.503 4.503 0 0 0-5.597 2.515c-2.039 4.033-.995 10.388.37 14.507 4.237 12.797 11.48 18.673 22.965 24.387a18.132 18.132 0 0 1 2.068-4.662c-9.59-11.586-10.508-20.73-13.286-34.935ZM29.868 102.108c-1.176.073-.986.254-1.106.331 8.686 3.115 19.96.942 29.995-.142-.017-5.914-24.686-.332-28.89-.19ZM43.468 111.403c3.758 1.232 18.96 1.794 18.964-1.46-.936-2.578-16.874.044-18.964 1.46Z"/><circle cx="107.699" cy="132.192" r="7.125"/><path d="M163.087 90.62a32.21 32.21 0 0 0 1.538 6.013 32.27 32.27 0 0 0 11.393 15.925l10.917 5.354c.496-3.111-2.457-9.479-3.73-11.517-3.686-5.906-13.068-14.12-20.118-15.776Z"/><path d="M158.08 88.877c-20.077-4.053-12.24 17.925-3.399 25.428a18.248 18.248 0 0 1 20.74 17.127c7.115-1.175 7.27-3.356 11.177-8.872-18.259-5.338-24.492-16.018-28.519-33.683Z"/><path d="M149.58 115.795c-9.805-9.67-5.263-25.739-13.495-28.948-3.26-1.27-9.44-1.23-13.207-.727-.713 12.58 8.983 31.258 16.652 41.216.197-.266 1.132-2.931 1.53-3.688a19.632 19.632 0 0 1 8.52-7.853Z"/><path d="M157.28 116.408a15.785 15.785 0 1 0 11.161 4.623 15.736 15.736 0 0 0-11.161-4.623Zm9.607 25.391a13.586 13.586 0 1 1 3.98-9.607 13.545 13.545 0 0 1-3.98 9.607ZM118.242 86.424l-14.8 2.1c-1.233 7.557 3.73 19.435 7.976 26.004a18.25 18.25 0 0 1 14.446 17.847c0 .113-.002.226-.004.338l12.698.655c-.338-.662-2.799-3.36-3.76-4.678-10.407-14.265-14.3-25.197-16.556-42.266Z"/><circle cx="157.28" cy="132.192" r="7.124"/></g></svg>
